X: 22172
T: L'Ogre Aux Quatres Bras
R: reel
M: 4/4
K: Eminor
|:E2GF E2D2|EFGA B2e2|e2^de B2AG|FEFG AFGF|
E2GF E2D2|EFGA B2e2|e2^de B2AG|1 FEFG E2D2:|2 FEFG E2B2||
|:e2e2 B2^AB|Bedc B2BA|GFED EGFE|FEFG AFGA|
eBB^A B2AB|Bedc B2BA|GFED EGFE|1 FEFG E2B2:|2 FEFG E2D2||

